!!!Genre:	Zhok
!!!Mode:	Minor
!!!Listening/dance:	dance
!!!:	*B-:
!!!One_Mode:	no
**kern
*thru
*I"P1
*clefG2
*k[b-e-]
*>bM
*B-:
*M3/8
*>A
!LO:TX:a:i:t=Bb-major
8f
=1
8ffL
8ee-J
((16qqdd/LL
16qqee-/JJ
16.ddLL)
32ccJJk)
=2
8ffL
8ee-J
((16qqdd/LL
16qqee-/JJ
16ddLL)
16ee-JJ)
=3
8ffL
8ggJ
(16qqff/LL
16qqgg/JJ
16.ffLL)
32ee-JJk
=4
8ddL
8ccJ
16b-LL
16ccJJ
=5
16ccLL
(8qee-/
16dd)
(16dd
16cc)
(16cc
16aJJ)
=6
8.b-L
16fL
16g
16aJJ
*>A1
=7
4b-
(8qb-/
8bb-)
=8
(8qb-/
4bb-)
*>A2
=9:||
4.b-
=
4b-
=10||
*>B
*>eM
*g:
!LO:TX:a:i:t=G-minor
8b-
=11!|:
*^
8b-	16b-LL
.	16ccJJ
8cc	8ccyy
24b-LL	8ryy
24a	.
24gJJ	.
*v	*v
=12
8b-L
8ccJ
24b-LL
24a
24gJJ
=13
8ffL
8ee-J
16ddLL
16ccJJ
=14
24b-LL
24cc
24b-JJ
8a
(16gLL
16b-JJ)
*>eM1
=15
(8.ddL
32b-LL
32ddJJJ)
16ccLL
16aJJ
=16
(8.b-L
32gLL
32b-JJJ)
16aLL
16f#XJJ
=17
4.g
=18
4.gg
*>eM2
=19:|!
(16ccLL
(8qee-/
16dd))
(16dd
16b-)
((8qdd/
16cc)
16aJJ)
=20
16b-LL
16b-
(16b-
16g)
(8qb-/
16a
16f#XJJ)
=21
4.g
=22
4G
==
*-
